src/topics/icons/jira.svg

<svg height="200" preserveAspectRatio="xMidYMid" viewBox="0 0 512 200" width="512" xmlns="http://www.w3.org/2000/svg"><g fill="#264970"><g transform="translate(157.363029 47.893096)"><path d="m311.545728 3.49163474c-.470948-1.49608908-1.857568-2.5121069-3.425496-2.5121069h-33.519466c-1.567929 0-2.953407 1.01601782-3.424356 2.5121069l-42.289604 134.12917626c-.344374 1.091278-.14824 2.281764.527965 3.205416.676205.923653 1.752659 1.467581 2.897532 1.467581h23.07535c1.591875 0 2.994458-1.046806 3.444882-2.574824l29.122423-98.6472334s.761728-2.4642139 3.399269-2.4642139c2.680873 0 3.334272 2.5611404 3.334272 2.563421l13.511554 46.7801514h-18.563135c-1.60898 0-3.021827 1.0696125-3.457426 2.6181559l-5.208944 18.518664c-.304463 1.083296-.084383 2.245274.595243 3.140418.679625.897426 1.737835 1.42311 2.863323 1.42311h31.325505l8.138405 26.117701c.467528 1.501791 1.857568 2.52465 3.430058 2.52465h23.086753c1.144873 0 2.220187-.543928 2.896392-1.467581.677345-.923652.873479-2.114138.529105-3.205416z"/><path d="m153.918147 27.0949488h27.933078c14.44547 0 17.345283 5.6844543 17.345283 14.8571225v13.6985657c0 11.4168018-4.375377 15.268775-17.345283 15.268775h-27.933078zm85.288481 109.2692382-30.693773-44.2760266c13.216214-5.4826192 19.914406-16.9724009 19.914406-34.1546192v-18.0568374c0-26.9022361-14.045221-38.89717596-45.539493-38.89717596h-54.607251c-1.983003 0-3.591982 1.60783964-3.591982 3.59084187v134.13031629c0 1.985283 1.608979 3.593122 3.591982 3.593122h22.045648c1.983002 0 3.591982-1.607839 3.591982-3.593122v-42.0661025h22.561069l30.68351 44.1175235c.671644.964704 1.773185 1.541701 2.948846 1.541701h26.344624.022806c1.984143 0 3.591982-1.607839 3.591982-3.593122 0-.892864-.324988-1.709327-.864356-2.336499z"/><path d="m97.9048909.97952784h-22.0456481c-1.9830023 0-3.5919822 1.60783964-3.5919822 3.59084187v134.13031629c0 1.985283 1.6089799 3.593122 3.5919822 3.593122h22.0456481c1.9841425 0 3.5931221-1.607839 3.5931221-3.593122v-134.13031629c0-1.98300223-1.6089796-3.59084187-3.5931221-3.59084187"/><path d="m46.2761336.97952784h-22.3136214c-1.8894966 0-3.4300579 1.53257906-3.4300579 3.42093541v104.95657875c0 13.189987-10.0507082 17.525452-16.85266811 17.872107-.91681069.044472-1.98414254.62261-2.5702628 1.478985-.5884009.859795-.75260579 1.93853-.44700223 2.932882l5.42560356 17.647465c.44244098 1.444775 1.99896659 2.372989 4.53159908 2.372989 21.3500579 0 39.0773452-16.762584 39.0773452-39.231287v-108.02857944c0-.90768819-.3591982-1.77888641-1.002334-2.42088196-.6408553-.64199554-1.5109132-1.00119376-2.4186014-1.00119376"/></g><path d="m30.8465746 12.2811581c-6.8555546 0-12.4065924 5.544196-12.4065924 12.4168553 0 6.8555545 5.5510378 12.4191358 12.4065924 12.4191358 6.8612561 0 12.4065924-5.5635813 12.4065924-12.4191358 0-6.8726593-5.5453363-12.4168553-12.4065924-12.4168553"/><path d="m112.356062 12.2811581c-6.858975 0-12.4031711 5.544196-12.4031711 12.4168553 0 6.8555545 5.5441961 12.4191358 12.4031711 12.4191358 6.839591 0 12.404312-5.5635813 12.404312-12.4191358 0-6.8726593-5.564721-12.4077328-12.404312-12.4168553"/><path d="m71.6013185.95102005c-6.8555546 0-12.4065924 5.54305567-12.4065924 12.41799555 0 6.8555546 5.5510378 12.4202762 12.4065924 12.4202762 6.8601158 0 12.4043118-5.5647216 12.4043118-12.4202762 0-6.87493988-5.544196-12.41799555-12.4043118-12.41799555"/><path d="m141.686022 46.8816392c-.691029-.5245434-1.520035-.797078-2.361585-.797078-.467528 0-.939617.0855234-1.38662.2577105-8.400677 3.2122584-16.931349 5.6513853-24.717398 7.4656214-1.588455.3706013-2.871305 1.5496837-3.402691 2.965951-5.673051 15.539029-20.1584318 30.3357149-35.3565075 45.8336929-.6100668.579278-1.4641604 1.343287-2.8553408 1.343287-1.3877594 0-2.2338708-.740062-2.8553407-1.343287-15.1957951-15.497978-29.681176-30.2433499-35.3565078-45.7835192-.5325256-1.4151269-1.8153764-2.5942093-3.4004098-2.965951-7.7906103-1.8142361-16.3429488-4.3286236-24.73336305-7.5408819-.44928285-.1710468-.92137194-.2565702-1.39004009-.2565702-.84155011 0-1.65573274.2645523-2.34448107.7902361-1.07645434.8210245-1.63520712 2.1529087-1.5074922 3.4323385 1.28627171 12.9220134 6.39258797 25.5543875 15.60744771 38.7922673 8.6618084 12.4453634 19.9600178 23.9659334 30.8830645 35.1056394 20.1265034 20.529033 39.1389221 39.917755 40.8071983 62.401283.1505211 2.027474 1.8404632 3.599964 3.8782004 3.599964h23.6455051c1.065052 0 2.08221-.43788 2.817711-1.209871.73208-.770851 1.119786-1.806254 1.066191-2.871305-.743483-15.03159-6.40057-30.084846-17.293968-46.015002-2.2829046-3.339973-4.7277331-6.589862-7.2843121-9.770192-1.0388241-1.295394-.6043653-2.904374.190432-3.716276.7856749-.80392 1.5747706-1.605559 2.3684276-2.418601 10.9241875-11.140847 22.2201155-22.660276 30.8842045-35.1056394 9.21372-13.2390201 14.317755-25.797274 15.605167-38.7170067.128856-1.2988152-.460685-2.6763118-1.507492-3.4768107"/><path d="m46.2316615 141.670058c-.5587528-.58498-1.3809176-1.182503-2.7606949-1.182503-1.7652027 0-2.8120089 1.220133-3.2076971 1.824498-9.9457996 15.135359-15.0829042 29.420045-15.7933185 43.77543-.051314 1.05821.3386726 2.109577 1.0707528 2.882709.7355011.76857 1.766343 1.212151 2.8291136 1.212151h23.6055946c2.0308953 0 3.7413631-1.589595 3.8907439-3.614788.5142806-6.918272 2.6683296-13.853649 6.5898619-21.141381 1.3592517-2.52123.303323-4.889657-.4789309-5.902254-3.8907439-5.059564-8.6561069-10.456659-15.7454254-17.853862"/><path d="m71.6275457 58.4660668c7.4108864 0 11.7087216-.4447216 13.2184944-.4447216 1.8290601 0 3.5771581 1.4983697 3.5771581 3.5965434 0 .6123475-.1448196 1.0502272-.2884989 1.4367929-.9829487 2.6272784-5.4620935 12.0804633-13.8011937 20.1892205-.9350557.9099688-1.9955457 1.0798753-2.7253452 1.0798753h-.0091225c-.7286593 0-1.7880089-.1699065-2.7230646-1.0798753-8.3391002-8.1087572-12.8193853-17.5619421-13.8000535-20.1892205-.1448196-.3865657-.2896392-.8244454-.2896392-1.4367929 0-2.0981737 1.7503786-3.5965434 3.5794388-3.5965434 1.5097728 0 5.8053274.4447216 13.2127928.4447216z"/></g></svg>

<?xml version="1.0" encoding="UTF-8" standalone="no"?>
<svg width="512px" height="200px" viewBox="0 0 512 200" version="1.1" xmlns="http://www.w3.org/2000/svg" xmlns:xlink="http://www.w3.org/1999/xlink" preserveAspectRatio="xMidYMid">
	<g fill="#264970">
		<g transform="translate(157.363029, 47.893096)">
			<path d="M311.545728,3.49163474 C311.07478,1.99554566 309.68816,0.97952784 308.120232,0.97952784 L274.600766,0.97952784 C273.032837,0.97952784 271.647359,1.99554566 271.17641,3.49163474 L228.886806,137.620811 C228.542432,138.712089 228.738566,139.902575 229.414771,140.826227 C230.090976,141.74988 231.16743,142.293808 232.312303,142.293808 L255.387653,142.293808 C256.979528,142.293808 258.382111,141.247002 258.832535,139.718984 L287.954958,41.0717506 C287.954958,41.0717506 288.716686,38.6075367 291.354227,38.6075367 C294.0351,38.6075367 294.688499,41.1686771 294.688499,41.1709577 L308.200053,87.9511091 L289.636918,87.9511091 C288.027938,87.9511091 286.615091,89.0207216 286.179492,90.569265 L280.970548,109.087929 C280.666085,110.171225 280.886165,111.333203 281.565791,112.228347 C282.245416,113.125773 283.303626,113.651457 284.429114,113.651457 L315.754619,113.651457 L323.893024,139.769158 C324.360552,141.270949 325.750592,142.293808 327.323082,142.293808 L350.409835,142.293808 C351.554708,142.293808 352.630022,141.74988 353.306227,140.826227 C353.983572,139.902575 354.179706,138.712089 353.835332,137.620811 L311.545728,3.49163474"></path>
			<path d="M153.918147,27.0949488 L181.851225,27.0949488 C196.296695,27.0949488 199.196508,32.7794031 199.196508,41.9520713 L199.196508,55.650637 C199.196508,67.0674388 194.821131,70.919412 181.851225,70.919412 L153.918147,70.919412 L153.918147,27.0949488 L153.918147,27.0949488 Z M239.206628,136.364187 L208.512855,92.0881604 C221.729069,86.6055412 228.427261,75.1157595 228.427261,57.9335412 L228.427261,39.8767038 C228.427261,12.9744677 214.38204,0.97952784 182.887768,0.97952784 L128.280517,0.97952784 C126.297514,0.97952784 124.688535,2.58736748 124.688535,4.57036971 L124.688535,138.700686 C124.688535,140.685969 126.297514,142.293808 128.280517,142.293808 L150.326165,142.293808 C152.309167,142.293808 153.918147,140.685969 153.918147,138.700686 L153.918147,96.6345835 L176.479216,96.6345835 L207.162726,140.752107 C207.83437,141.716811 208.935911,142.293808 210.111572,142.293808 L236.456196,142.293808 L236.479002,142.293808 C238.463145,142.293808 240.070984,140.685969 240.070984,138.700686 C240.070984,137.807822 239.745996,136.991359 239.206628,136.364187 L239.206628,136.364187 Z"></path>
			<path d="M97.9048909,0.97952784 L75.8592428,0.97952784 C73.8762405,0.97952784 72.2672606,2.58736748 72.2672606,4.57036971 L72.2672606,138.700686 C72.2672606,140.685969 73.8762405,142.293808 75.8592428,142.293808 L97.9048909,142.293808 C99.8890334,142.293808 101.498013,140.685969 101.498013,138.700686 L101.498013,4.57036971 C101.498013,2.58736748 99.8890334,0.97952784 97.9048909,0.97952784"></path>
			<path d="M46.2761336,0.97952784 L23.9625122,0.97952784 C22.0730156,0.97952784 20.5324543,2.5121069 20.5324543,4.40046325 L20.5324543,109.357042 C20.5324543,122.547029 10.4817461,126.882494 3.67978619,127.229149 C2.7629755,127.273621 1.69564365,127.851759 1.10952339,128.708134 C0.521122494,129.567929 0.356917595,130.646664 0.662521158,131.641016 L6.08812472,149.288481 C6.5305657,150.733256 8.08709131,151.66147 10.6197238,151.66147 C31.9697817,151.66147 49.697069,134.898886 49.697069,112.430183 L49.697069,4.40160356 C49.697069,3.49391537 49.3378708,2.62271715 48.694735,1.9807216 C48.0538797,1.33872606 47.1838218,0.97952784 46.2761336,0.97952784"></path>
		</g>
		<g>
			<path d="M30.8465746,12.2811581 C23.99102,12.2811581 18.4399822,17.8253541 18.4399822,24.6980134 C18.4399822,31.5535679 23.99102,37.1171492 30.8465746,37.1171492 C37.7078307,37.1171492 43.253167,31.5535679 43.253167,24.6980134 C43.253167,17.8253541 37.7078307,12.2811581 30.8465746,12.2811581"></path>
			<path d="M112.356062,12.2811581 C105.497087,12.2811581 99.9528909,17.8253541 99.9528909,24.6980134 C99.9528909,31.5535679 105.497087,37.1171492 112.356062,37.1171492 C119.195653,37.1171492 124.760374,31.5535679 124.760374,24.6980134 C124.760374,17.8253541 119.195653,12.2902806 112.356062,12.2811581"></path>
			<path d="M71.6013185,0.951020045 C64.7457639,0.951020045 59.1947261,6.49407572 59.1947261,13.3690156 C59.1947261,20.2245702 64.7457639,25.7892918 71.6013185,25.7892918 C78.4614343,25.7892918 84.0056303,20.2245702 84.0056303,13.3690156 C84.0056303,6.49407572 78.4614343,0.951020045 71.6013185,0.951020045"></path>
			<path d="M141.686022,46.8816392 C140.994993,46.3570958 140.165987,46.0845612 139.324437,46.0845612 C138.856909,46.0845612 138.38482,46.1700846 137.937817,46.3422717 C129.53714,49.5545301 121.006468,51.993657 113.220419,53.8078931 C111.631964,54.1784944 110.349114,55.3575768 109.817728,56.7738441 C104.144677,72.3128731 89.6592962,87.109559 74.4612205,102.607537 C73.8511537,103.186815 72.9970601,103.950824 71.6058797,103.950824 C70.2181203,103.950824 69.3720089,103.210762 68.750539,102.607537 C53.5547439,87.109559 39.069363,72.3641871 33.3940312,56.8240178 C32.8615056,55.4088909 31.5786548,54.2298085 29.9936214,53.8580668 C22.2030111,52.0438307 13.6506726,49.5294432 5.26025835,46.3171849 C4.8109755,46.1461381 4.33888641,46.0606147 3.87021826,46.0606147 C3.02866815,46.0606147 2.21448552,46.325167 1.52573719,46.8508508 C0.449282851,47.6718753 -0.109469933,49.0037595 0.0182449889,50.2831893 C1.3045167,63.2052027 6.41083296,75.8375768 15.6256927,89.0754566 C24.2875011,101.52082 35.5857105,113.04139 46.5087572,124.181096 C66.6352606,144.710129 85.6476793,164.098851 87.3159555,186.582379 C87.4664766,188.609853 89.1564187,190.182343 91.1941559,190.182343 L114.839661,190.182343 C115.904713,190.182343 116.921871,189.744463 117.657372,188.972472 C118.389452,188.201621 118.777158,187.166218 118.723563,186.101167 C117.98008,171.069577 112.322993,156.016321 101.429595,140.086165 C99.1466904,136.746192 96.7018619,133.496303 94.1452829,130.315973 C93.1064588,129.020579 93.5409176,127.411599 94.3357149,126.599697 C95.1213898,125.795777 95.9104855,124.994138 96.7041425,124.181096 C107.62833,113.040249 118.924258,101.52082 127.588347,89.0754566 C136.802067,75.8364365 141.906102,63.2781826 143.193514,50.3584499 C143.32237,49.0596347 142.732829,47.6821381 141.686022,46.8816392"></path>
			<path d="M46.2316615,141.670058 C45.6729087,141.085078 44.8507439,140.487555 43.4709666,140.487555 C41.7057639,140.487555 40.6589577,141.707688 40.2632695,142.312053 C30.3174699,157.447412 25.1803653,171.732098 24.469951,186.087483 C24.418637,187.145693 24.8086236,188.19706 25.5407038,188.970192 C26.2762049,189.738762 27.3070468,190.182343 28.3698174,190.182343 L51.975412,190.182343 C54.0063073,190.182343 55.7167751,188.592748 55.8661559,186.567555 C56.3804365,179.649283 58.5344855,172.713906 62.4560178,165.426174 C63.8152695,162.904944 62.7593408,160.536517 61.9770869,159.52392 C58.086343,154.464356 53.32098,149.067261 46.2316615,141.670058"></path>
			<path d="M71.6275457,58.4660668 C79.0384321,58.4660668 83.3362673,58.0213452 84.8460401,58.0213452 C86.6751002,58.0213452 88.4231982,59.5197149 88.4231982,61.6178886 C88.4231982,62.2302361 88.2783786,62.6681158 88.1346993,63.0546815 C87.1517506,65.6819599 82.6726058,75.1351448 74.3335056,83.243902 C73.3984499,84.1538708 72.3379599,84.3237773 71.6081604,84.3237773 L71.5990379,84.3237773 C70.8703786,84.3237773 69.811029,84.1538708 68.8759733,83.243902 C60.5368731,75.1351448 56.056588,65.6819599 55.0759198,63.0546815 C54.9311002,62.6681158 54.7862806,62.2302361 54.7862806,61.6178886 C54.7862806,59.5197149 56.5366592,58.0213452 58.3657194,58.0213452 C59.8754922,58.0213452 64.1710468,58.4660668 71.5785122,58.4660668 L71.6275457,58.4660668"></path>
		</g>
	</g>
</svg>
